X: 2411
T: Ballad Of Ballynure, The
R: reel
M: 4/4
K: Gmajor
B2|B3/2e/ efe e3/2d/ B3/2^c/ d3/2e/|f2 f3/2e/ dB Bde|
f3/2e/ e3/2d/ B3/2A/ ABc|d3/2B/ B3/2A/ F3/2E/ EFD|
F2 F3/2D/ E2 FGA|B3/2^c/ d3/2F/ F3/2E/ E2|E2||

